X: 22
T: Une plaisante fillette
N: Derived from Com3042-Une_plaisante_fillette.krn
C: Loyset Comp\`ere
%%abc-version 2.0
%%abcx-abcm2ps-target-version 5.9.1 (29 Sep 2008)
%%abc-creator hum2abc beta
%%abcx-conversion-date 2019/02/16 20:28:09
%%abc-edited-by Jesse Rodin
%%abc-edited-by Megan K. Eagen 2013/11/30
%%abcx-initial-encoding-date 2013/11/30/
%%humdrum-veritas 3008333092
%%humdrum-veritas-data 695418333
%%linebreak <none>
%%barnumbers 0
L: 1/4
M: 2/1
Q: 1/2=120
%%staves [1 2 3 4]
V: 1 clef=treble
V: 2 clef=treble-8
V: 3 clef=treble-8
V: 4 clef=bass
K: F
[V:1] z8 | 
[V:2] z8 | 
[V:3] z8 | 
[V:4] F,4F,2F,2 | 
[V:1] z8 | 
[V:2] F4F2F2 | 
[V:3] z8 | 
[V:4] F,3G,A,2A,2- | 
[V:1] z4F4 | 
[V:2] F3GA2A2 | 
[V:3] F4F2F2 | 
[V:4] A,G,F,E,D,4- | 
[V:1] F2F2F3G | 
[V:2] FGABc2A2- | 
[V:3] F3GA4 | 
[V:4] D,2C,B,,A,,2D,2- | 
[V:1] A2A2G2A2- | 
[V:2] A2GFE2D2 | 
[V:3] FGABc2F2 | 
[V:4] D,E,F,2C,2F,2- | 
[V:1] AG/F/F4E2 | 
[V:2] F4C2c2- | 
[V:3] A2B2G4 | 
[V:4] F,2B,,2C,4 | 
[V:1] F8 | 
[V:2] cBAGA4 | 
[V:3] F8 | 
[V:4] F,,4z4 | 
[V:1] z8 | 
[V:2] F4z4 | 
[V:3] z4A4- | 
[V:4] D,4D,2D,2 | 
[V:1] z8 | 
[V:2] z8 | 
[V:3] A2A2G4 | 
[V:4] C,4C,3B,,/A,,/ | 
[V:1] z4A4 | 
[V:2] d4d2d2 | 
[V:3] G3F/E/D3E | 
[V:4] G,,4z4 | 
[V:1] A2A2G4 | 
[V:2] c4c3B/A/ | 
[V:3] F3EC4- | 
[V:4] z8 | 
[V:1] G3F/E/D4- | 
[V:2] G4z4 | 
[V:3] C4z4 | 
[V:4] z4B,,4 | 
[V:1] D8- | 
[V:2] B4B2B2 | 
[V:3] z4F4 | 
[V:4] B,,2B,,2B,,3C, | 
[V:1] D4z4 | 
[V:2] B3cd2d2 | 
[V:3] F2F2F3G | 
[V:4] D,2D,2B,,C,D,E, | 
[V:1] z8 | 
[V:2] c6d2 | 
[V:3] A4G2A2 | 
[V:4] F,4E,2F,2 | 
[V:1] z8 | 
[V:2] cBAGA4 | 
[V:3] GFEDE4 | 
[V:4] E,D,C,B,,C,4 | 
[V:1] F4F2F2 | 
[V:2] B4d4 | 
[V:3] F4z2F2- | 
[V:4] B,,8 | 
[V:1] F3GA2A2 | 
[V:2] c3BAGF2 | 
[V:3] FGABc3A | 
[V:4] F,8 | 
[V:1] G2A3G/F/F2- | 
[V:2] G2c3AB2 | 
[V:3] B2c2F4 | 
[V:4] z2F,3E,D,2 | 
[V:1] F2E2F4- | 
[V:2] c8 | 
[V:3] G4F4- | 
[V:4] C,4F,,4 | 
[V:1] F4c4 | 
[V:2] z4A4 | 
[V:3] F4z4 | 
[V:4] z4F,4 | 
[V:1] B2A2G2B2 | 
[V:2] G2A2B4 | 
[V:3] z8 | 
[V:4] G,2D,2G,2G,2 | 
[V:1] A3G/F/EFG2- | 
[V:2] c2F2G4 | 
[V:3] c6B2 | 
[V:4] F,3E,/D,/C,2G,,2 | 
[V:1] G2F2F2E2 | 
[V:2] C4z2c2 | 
[V:3] A4G4 | 
[V:4] A,,3B,,C,4 | 
[V:1] F2G4F2- | 
[V:2] c2c2F4 | 
[V:3] F2c2A3G/F/ | 
[V:4] z2C,2D,4 | 
[V:1] F2E2F2c2 | 
[V:2] z2c2c2c2 | 
[V:3] G4F4 | 
[V:4] C,4F,,4- | 
[V:1] c2c2A4 | 
[V:2] A4z4 | 
[V:3] z2c2c2c2 | 
[V:4] F,,4z2F,2 | 
[V:1] z8 | 
[V:2] z2A2A2A2 | 
[V:3] A4z2d2 | 
[V:4] F,2F,2D,4- | 
[V:1] z2A2A2A2 | 
[V:2] F4z2f2 | 
[V:3] d2d2c4 | 
[V:4] D,4z2F,2 | 
[V:1] G4z2d2 | 
[V:2] d2e2f4- | 
[V:3] z2G2A4 | 
[V:4] G,2G,2D,4 | 
[V:1] d2d2c3B | 
[V:2] f8 | 
[V:3] B4A2F2- | 
[V:4] B,,4F,4- | 
[V:1] A3G/F/EFG2- | 
[V:2] z2c4d2 | 
[V:3] FGABc2B2 | 
[V:4] F,4C,2F,,2 | 
[V:1] G2F4E2 | 
[V:2] c2B2c4 | 
[V:3] A3G/F/G4 | 
[V:4] C,2D,2C,4 | 
[V:1] F8 | 
[V:2] A4z2F2 | 
[V:3] F8 | 
[V:4] z2F,,2F,,2F,,2 | 
[V:1] z8 | 
[V:2] F2F2F3G | 
[V:3] z8 | 
[V:4] F,,3G,,A,,2A,,2 | 
[V:1] z8 | 
[V:2] A2A2GFED | 
[V:3] z8 | 
[V:4] F,,G,,A,,B,,C,3B,, | 
[V:1] z8 | 
[V:2] C2G3FF2- | 
[V:3] z8 | 
[V:4] C,2B,,3A,,G,,F,, | 
[V:1] z8 | 
[V:2] F2E2F2c2 | 
[V:3] z4A4 | 
[V:4] G,,4F,,4 | 
[V:1] A4A2A2 | 
[V:2] c2c2d4- | 
[V:3] A2A2A4 | 
[V:4] F,4D,2D,2 | 
[V:1] G4G3F/E/ | 
[V:2] d4e4 | 
[V:3] B4c4 | 
[V:4] G,4C,4 | 
[V:1] D6F2- | 
[V:2] f2F2F2F2 | 
[V:3] A8 | 
[V:4] D,8 | 
[V:1] F2EDC4- | 
[V:2] F3GA2A2 | 
[V:3] z8 | 
[V:4] z2F,2F,2F,2 | 
[V:1] C4z4 | 
[V:2] FGABc4 | 
[V:3] z2F2F2F2 | 
[V:4] F,3G,A,2A,2 | 
[V:1] F4F2F2 | 
[V:2] A4d4- | 
[V:3] F3GA2A2 | 
[V:4] D,4D,4- | 
[V:1] F3GA2A2 | 
[V:2] d4c4 | 
[V:3] FGABc2d2- | 
[V:4] D,2F,4E,D, | 
[V:1] G2A3GFE/D/ | 
[V:2] z4F4 | 
[V:3] dcc4=B2 | 
[V:4] E,2F,2D,4 | 
[V:1] E8 | 
[V:2] G3GG2G2 | 
[V:3] c8 | 
[V:4] C,8 | 
[V:1] z4c4 | 
[V:2] F2EDC4 | 
[V:3] c6c2 | 
[V:4] z8 | 
[V:1] B2A2G2B2 | 
[V:2] z8 | 
[V:3] d4e4 | 
[V:4] z8 | 
[V:1] A3G/F/EFG2- | 
[V:2] z8 | 
[V:3] f3e/d/c2B2- | 
[V:4] z8 | 
[V:1] G2F4E2 | 
[V:2] z8 | 
[V:3] B2A2G4 | 
[V:4] z8 | 
[V:1] F8 | 
[V:2] z4c4 | 
[V:3] F4z4 | 
[V:4] z2F,2F,2F,2 | 
[V:1] z8 | 
[V:2] c2c2c2c2 | 
[V:3] z8 | 
[V:4] F,3G,A,2A,2 | 
[V:1] z8 | 
[V:2] B2c2BAGF | 
[V:3] z8 | 
[V:4] G,2A,2G,F,E,D, | 
[V:1] z4z2F2 | 
[V:2] G4F2d2 | 
[V:3] z4z2A2 | 
[V:4] E,4F,2D,2 | 
[V:1] F4F4 | 
[V:2] d4d4 | 
[V:3] A4A4 | 
[V:4] D,4D,4 | 
[V:1] G4G4 | 
[V:2] B4c4 | 
[V:3] G4G3F/E/ | 
[V:4] G,,4C,4 | 
[V:1] B3AF4- | 
[V:2] d8- | 
[V:3] D8 | 
[V:4] B,,4z2B,,2 | 
[V:1] F4z4 | 
[V:2] d8 | 
[V:3] z2F2F2F2 | 
[V:4] B,,2B,,2B,,3C, | 
[V:1] z8 | 
[V:2] z8 | 
[V:3] F3GA4 | 
[V:4] D,2D,2C,3A,, | 
[V:1] z8 | 
[V:2] z8 | 
[V:3] G2A2GFED | 
[V:4] B,,2C,2B,,A,,G,,F,, | 
[V:1] z8 | 
[V:2] z8 | 
[V:3] E4F4- | 
[V:4] G,,4F,,4- | 
[V:1] z8 | 
[V:2] c8 | 
[V:3] F4A4 | 
[V:4] F,,4F,4 | 
[V:1] z8 | 
[V:2] B3AG2B2 | 
[V:3] G2F2E2D2 | 
[V:4] B,,2B,,2C,2G,,2 | 
[V:1] z8 | 
[V:2] A3G/F/EFG2- | 
[V:3] F4z2D2- | 
[V:4] D,4C,2B,,2- | 
[V:1] z8 | 
[V:2] G2F2F2E2 | 
[V:3] D2C4B,2 | 
[V:4] B,,A,,G,,F,,G,,2G,,2 | 
[V:1] z2F2F2F2 | 
[V:2] F8 | 
[V:3] C4z2F2 | 
[V:4] F,,8 | 
[V:1] A2A2A3G/F/ | 
[V:2] c4c2c2 | 
[V:3] F2F2F3G | 
[V:4] z8 | 
[V:1] E8 | 
[V:2] c2c2c3d | 
[V:3] A4G2A2- | 
[V:4] z4C,4 | 
[V:1] z4G4 | 
[V:2] e2f4e2 | 
[V:3] A2GFG4 | 
[V:4] C,2A,,2B,,2C,2 | 
[V:1] A2A2A2A2 | 
[V:2] f3ec4- | 
[V:3] F8 | 
[V:4] F,,4F,,4 | 
[V:1] E8- | 
[V:2] c4z4 | 
[V:3] A4A2A2 | 
[V:4] z4C,4 | 
[V:1] E4z4 | 
[V:2] z4d4 | 
[V:3] G4G4 | 
[V:4] C,2C,2B,,4 | 
[V:1] z4z2F2 | 
[V:2] d2d2c2c2 | 
[V:3] D2F2F2F2 | 
[V:4] B,,4F,,4- | 
[V:1] F2F2F3G | 
[V:2] A4z4 | 
[V:3] F3GA4 | 
[V:4] F,,4z4 | 
[V:1] A2A2G2A2 | 
[V:2] z8 | 
[V:3] FGABcBc2 | 
[V:4] z8 | 
[V:1] GFEDE4- | 
[V:2] z4c4- | 
[V:3] BAGFG4- | 
[V:4] z4C,4- | 
[V:1] E4z4 | 
[V:2] c4B2A2 | 
[V:3] G4z4 | 
[V:4] C,4D,2D,2 | 
[V:1] z8 | 
[V:2] G2B2A3G/F/ | 
[V:3] z8 | 
[V:4] E,2E,2F,3E,/D,/ | 
[V:1] z8 | 
[V:2] EFGAG2F2- | 
[V:3] z8 | 
[V:4] C,2B,,4A,,2 | 
[V:1] z8 | 
[V:2] F2E2F4- | 
[V:3] z8 | 
[V:4] G,,4F,,4- | 
[V:1] c8 | 
[V:2] F4c4 | 
[V:3] A8 | 
[V:4] F,,8 | 
[V:1] B2A2G2B2 | 
[V:2] d2d2e2e2 | 
[V:3] G2A2B4 | 
[V:4] z2F,2G,2G,2 | 
[V:1] A3G/F/EFG2- | 
[V:2] f4z2d2- | 
[V:3] c6B2- | 
[V:4] F,4z4 | 
[V:1] G2F4E2 | 
[V:2] d2c4B2 | 
[V:3] BAGFG4 | 
[V:4] z8 | 
[V:1] F4z2c2 | 
[V:2] c2c2c2c2 | 
[V:3] F8 | 
[V:4] z8 | 
[V:1] c2c2A4 | 
[V:2] A4z4 | 
[V:3] z2c2c2c2 | 
[V:4] z4z2F,2 | 
[V:1] z4z2d2 | 
[V:2] z2f2f2f2 | 
[V:3] A8 | 
[V:4] F,2F,2D,4- | 
[V:1] d2d2c4 | 
[V:2] d3c/B/A4 | 
[V:3] z8 | 
[V:4] D,4F,4 | 
[V:1] B2A4GF | 
[V:2] G2F2A4 | 
[V:3] z2d2d2d2 | 
[V:4] G,2D,2F,4 | 
[V:1] E2CDEFG2- | 
[V:2] G4z2d2 | 
[V:3] c6B2- | 
[V:4] C,3B,,A,,2G,,2 | 
[V:1] G2F4E2 | 
[V:2] d2A2c4 | 
[V:3] BAGFG2G2 | 
[V:4] B,,2D,2C,4 | 
[V:1] F8- | 
[V:2] z2c2c2c2 | 
[V:3] F8- | 
[V:4] F,,8- | 
[V:1] F8 |]  
[V:2] A8 |]  
[V:3] F8 |]  
[V:4] F,,8 |]  



